images/icons/secure-icon.svg

<svg width="64" height="64" viewBox="0 0 64 64" fill="none" xmlns="http://www.w3.org/2000/svg">
<circle cx="32" cy="32" r="32" fill="#09977C" fill-opacity="0.1"/>
<path fill-rule="evenodd" clip-rule="evenodd" d="M31.565 47.8619C31.7422 47.9544 31.9403 48.0015 32.1384 47.9999C32.3365 47.9984 32.5331 47.9497 32.7119 47.8556L38.4205 44.8039C40.0393 43.941 41.307 42.9761 42.296 41.8527C44.4464 39.4051 45.6206 36.2813 45.5997 33.0602L45.5321 22.4352C45.5256 21.2114 44.7218 20.1194 43.5331 19.7224L32.9132 16.1593C32.2737 15.9428 31.573 15.9475 30.9448 16.1703L20.3652 19.8605C19.1829 20.2731 18.3936 21.373 18.4001 22.5983L18.4677 33.2155C18.4887 36.4413 19.7032 39.551 21.889 41.9735C22.8877 43.0812 24.1667 44.032 25.8032 44.8808L31.565 47.8619ZM30.0538 35.3743C30.2922 35.6034 30.6014 35.7163 30.9107 35.7132C31.22 35.7116 31.5276 35.5955 31.7628 35.3633L38.0014 29.213C38.4701 28.7501 38.4653 28.0064 37.9917 27.5498C37.5165 27.0933 36.7514 27.0964 36.2826 27.5593L30.893 32.8718L28.6862 30.7505C28.211 30.294 27.4475 30.2987 26.9772 30.7615C26.5084 31.2244 26.5133 31.9681 26.9884 32.4246L30.0538 35.3743Z" fill="#00F6FF"/>
</svg>

<svg width="64" height="64" fill="none" xmlns="http://www.w3.org/2000/svg"><circle cx="32" cy="32" r="32" fill="#09977C" fill-opacity=".1"/><path fill-rule="evenodd" clip-rule="evenodd" d="M31.565 47.862c.177.092.375.14.573.138.199-.002.395-.05.574-.144l5.708-3.052c1.62-.863 2.887-1.828 3.876-2.951A13.192 13.192 0 0 0 45.6 33.06l-.068-10.625c-.006-1.224-.81-2.316-1.999-2.713l-10.62-3.563a3.022 3.022 0 0 0-1.968.011l-10.58 3.69c-1.182.413-1.971 1.513-1.965 2.738l.068 10.617a13.197 13.197 0 0 0 3.421 8.758c.999 1.108 2.278 2.059 3.914 2.908l5.762 2.98Zm-1.511-12.488c.238.23.547.342.857.34.309-.002.617-.118.852-.35L38 29.212a1.155 1.155 0 0 0-.01-1.663 1.231 1.231 0 0 0-1.708.01l-5.39 5.312-2.207-2.122a1.231 1.231 0 0 0-1.709.012 1.154 1.154 0 0 0 .011 1.663l3.066 2.95Z" fill="#00F6FF"/></svg>
